; generated by PrusaSlicer 2.5.0+win64 on 2022-10-02 at 15:00:12 UTC


;
;
; 

; external perimeters extrusion width = 0.45mm
; perimeters extrusion width = 0.45mm
; infill extrusion width = 0.45mm
; solid infill extrusion width = 0.45mm
; top infill extrusion width = 0.40mm
; support material extrusion width = 0.35mm
; first layer extrusion width = 0.42mm

M73 P0 R63
M73 Q0 S63
M201 X1000 Y1000 Z200 E5000 ; sets maximum accelerations, mm/sec^2
M203 X200 Y200 Z12 E120 ; sets maximum feedrates, mm / sec
M204 P1250 R1250 T1250 ; sets acceleration (P, T) and retract acceleration (R), mm/sec^2
M205 X8.00 Y8.00 Z0.40 E4.50 ; sets the jerk limits, mm/sec
M205 S0 T0 ; sets the minimum extruding and travel feed rate, mm/sec
M107
;TYPE:Custom
M862.3 P "MK3S" ; printer model check
M862.1 P0.4 ; nozzle diameter check
M115 U3.11.0 ; tell printer latest fw version
G90 ; use absolute coordinates
M83 ; extruder relative mode
M104 S215 ; set extruder temp
M140 S60 ; set bed temp
M190 S60 ; wait for bed temp
M109 S215 ; wait for extruder temp
G28 W ; home all without mesh bed level
G80 ; mesh bed leveling

G1 Z0.2 F720
G1 Y-3 F1000 ; go outside print area
G92 E0
G1 X60 E9 F1000 ; intro line
G1 X100 E12.5 F1000 ; intro line

G92 E0
M221 S95

; Don't change E values below. Excessive value can damage the printer.
M907 E430 ; set extruder motor current
G21 ; set units to millimeters
G90 ; use absolute coordinates
M83 ; use relative distances for extrusion
M900 K0.05 ; Filament gcode LA 1.5
M900 K30 ; Filament gcode LA 1.0
M107
;LAYER_CHANGE
;Z:0.2
;HEIGHT:0.2
;BEFORE_LAYER_CHANGE
G92 E0.0
;0.2


M73 P0 R62
G1 E-.8 F2100
G1 Z.4 F720
;AFTER_LAYER_CHANGE
;0.2
G1 X99.307 Y91.521 F10800
G1 Z.2 F720
G1 E.8 F2100
M204 S800
;TYPE:Skirt/Brim
;WIDTH:0.42
G1 F1200
G1 X100.353 Y90.645 E.04278
G1 X101.293 Y90.451 E.03008
G1 X146.4 Y90.451 E1.41431
G1 X148.081 Y91.147 E.05704
G1 X150.388 Y93.454 E.1023
G1 X150.833 Y94.072 E.02388
G1 X153.14 Y98.686 E.16175
G1 X153.391 Y99.749 E.03425
G1 X153.391 Y110.251 E.32925
G1 X153.14 Y111.314 E.03425
G1 X150.833 Y115.928 E.16175
G1 X150.388 Y116.546 E.02388
G1 X148.081 Y118.853 E.1023
G1 X146.4 Y119.549 E.05704
G1 X101.293 Y119.549 E1.41431
G1 X99.986 Y119.157 E.04278
G1 X99.109 Y118.112 E.04278
G1 X98.916 Y117.172 E.03008
G1 X98.916 Y92.828 E.76327
G1 X99.29 Y91.579 E.0409
M204 S1000
; printing object XM8500-Mount for DIY Shure SM7B Mod(3).stl id:0 copy 0
;WIPE_START
G1 F8640
G1 X100.353 Y90.645 E-.32671
G1 X101.293 Y90.451 E-.22155
G1 X102.21 Y90.451 E-.21174
;WIPE_END
G1 E-.04 F2100
G1 Z.6 F720
G1 X146.4 Y95.135 F10800
G1 Z.2 F720
M73 Q0 S62
G1 E.8 F2100
M204 S800
;TYPE:Support material
G1 F1200
G1 X148.707 Y95.135 E.07234
G1 X148.707 Y99.749 E.14467
G1 X151.014 Y99.749 E.07234
G1 X151.014 Y110.251 E.32925
G1 X148.707 Y110.251 E.07234
G1 X148.707 Y114.865 E.14467
G1 X146.4 Y114.865 E.07234
G1 X146.4 Y117.172 E.07234
G1 X101.293 Y117.172 E1.41431
G1 X101.293 Y109.701 E.23423
G1 X103.464 Y109.21 E.06981
G1 X103.464 Y111.609 E.0752
G1 X103.558 Y111.805 E.00681
G1 X104.081 Y112.229 E.02112
G1 X104.081 Y112.301 E.00227
G1 X104.362 Y112.58 E.01241
G1 X124.177 Y112.58 E.62129
G1 X124.385 Y112.473 E.00733
G1 X124.595 Y112.175 E.01143
G1 X124.641 Y112.033 E.00467
G1 X124.641 Y97.967 E.44103
G1 X124.595 Y97.825 E.00467
G1 X124.385 Y97.527 E.01143
G1 X124.177 Y97.42 E.00733
G1 X104.362 Y97.42 E.62129
G1 X104.081 Y97.699 E.01241
G1 X104.081 Y97.772 E.0023
G1 X103.559 Y98.195 E.02108
G1 X103.465 Y98.391 E.0068
G1 X103.464 Y100.792 E.07527
G1 X101.293 Y100.3 E.06981
G1 X101.293 Y92.828 E.23426
G1 X146.4 Y92.828 E1.41431
G1 X146.4 Y95.079 E.07056
M204 S1000
G1 X150.558 Y110.081 F10800
M204 S800
G1 F1200
G1 X150.558 Y100.089 E.31329
G1 X150.139 Y100.089 E.01314
G1 X150.139 Y109.911 E.30797
G1 X149.72 Y109.911 E.01314
G1 X149.72 Y100.089 E.30797
G1 X149.301 Y100.089 E.01314
G1 X149.301 Y109.911 E.30797
G1 X148.882 Y109.911 E.01314
G1 X148.882 Y100.089 E.30797
G1 X148.463 Y100.089 E.01314
G1 X148.463 Y109.911 E.30797
G1 X148.368 Y109.911 E.00298
G1 X148.368 Y114.525 E.14467
G1 X148.044 Y114.525 E.01016
G1 X148.044 Y95.475 E.59732
G1 X147.625 Y95.475 E.01314
G1 X147.625 Y114.525 E.59732
G1 X147.206 Y114.525 E.01314
G1 X147.206 Y95.475 E.59732
G1 X146.787 Y95.475 E.01314
G1 X146.787 Y114.525 E.59732
G1 X146.368 Y114.525 E.01314
G1 X146.368 Y95.475 E.59732
G1 X146.061 Y95.475 E.00963
G1 X146.061 Y93.168 E.07234
G1 X145.949 Y93.168 E.00351
G1 X145.949 Y116.832 E.74199
G1 X145.53 Y116.832 E.01314
G1 X145.53 Y93.168 E.74199
G1 X145.111 Y93.168 E.01314
G1 X145.111 Y116.832 E.74199
G1 X144.692 Y116.832 E.01314
M73 P1 R62
M73 Q1 S62
G1 X144.692 Y93.168 E.74199
G1 X144.273 Y93.168 E.01314
G1 X144.273 Y116.832 E.74199
G1 X143.854 Y116.832 E.01314
G1 X143.854 Y93.168 E.74199
G1 X143.435 Y93.168 E.01314
G1 X143.435 Y116.832 E.74199
G1 X143.016 Y116.832 E.01314
G1 X143.016 Y93.168 E.74199
G1 X142.597 Y93.168 E.01314
G1 X142.597 Y116.832 E.74199
G1 X142.178 Y116.832 E.01314
G1 X142.178 Y93.168 E.74199
G1 X141.759 Y93.168 E.01314
G1 X141.759 Y116.832 E.74199
G1 X141.34 Y116.832 E.01314
G1 X141.34 Y93.168 E.74199
G1 X140.921 Y93.168 E.01314
G1 X140.921 Y116.832 E.74199
G1 X140.502 Y116.832 E.01314
G1 X140.502 Y93.168 E.74199
G1 X140.083 Y93.168 E.01314
G1 X140.083 Y116.832 E.74199
G1 X139.664 Y116.832 E.01314
G1 X139.664 Y93.168 E.74199
G1 X139.245 Y93.168 E.01314
G1 X139.245 Y116.832 E.74199
G1 X138.826 Y116.832 E.01314
G1 X138.826 Y93.168 E.74199
G1 X138.407 Y93.168 E.01314
G1 X138.407 Y116.832 E.74199
G1 X137.988 Y116.832 E.01314
G1 X137.988 Y93.168 E.74199
G1 X137.569 Y93.168 E.01314
G1 X137.569 Y116.832 E.74199
G1 X137.15 Y116.832 E.01314
G1 X137.15 Y93.168 E.74199
G1 X136.731 Y93.168 E.01314
G1 X136.731 Y116.832 E.74199
G1 X136.312 Y116.832 E.01314
G1 X136.312 Y93.168 E.74199
G1 X135.893 Y93.168 E.01314
M73 P1 R61
G1 X135.893 Y116.832 E.74199
G1 X135.474 Y116.832 E.01314
G1 X135.474 Y93.168 E.74199
G1 X135.055 Y93.168 E.01314
G1 X135.055 Y116.832 E.74199
G1 X134.636 Y116.832 E.01314
G1 X134.636 Y93.168 E.74199
G1 X134.217 Y93.168 E.01314
G1 X134.217 Y116.832 E.74199
G1 X133.799 Y116.832 E.01314
G1 X133.799 Y93.168 E.74199
G1 X133.38 Y93.168 E.01314
G1 X133.38 Y116.832 E.74199
G1 X132.961 Y116.832 E.01314
G1 X132.961 Y93.168 E.74199
G1 X132.542 Y93.168 E.01314
G1 X132.542 Y116.832 E.74199
G1 X132.123 Y116.832 E.01314
G1 X132.123 Y93.168 E.74199
G1 X131.704 Y93.168 E.01314
M73 P2 R61
M73 Q2 S61
G1 X131.704 Y116.832 E.74199
G1 X131.285 Y116.832 E.01314
G1 X131.285 Y93.168 E.74199
G1 X130.866 Y93.168 E.01314
G1 X130.866 Y116.832 E.74199
G1 X130.447 Y116.832 E.01314
G1 X130.447 Y93.168 E.74199
G1 X130.028 Y93.168 E.01314
G1 X130.028 Y116.832 E.74199
G1 X129.609 Y116.832 E.01314
G1 X129.609 Y93.168 E.74199
G1 X129.19 Y93.168 E.01314
G1 X129.19 Y116.832 E.74199
G1 X128.771 Y116.832 E.01314
G1 X128.771 Y93.168 E.74199
G1 X128.352 Y93.168 E.01314
G1 X128.352 Y116.832 E.74199
G1 X127.933 Y116.832 E.01314
G1 X127.933 Y93.168 E.74199
G1 X127.514 Y93.168 E.01314
G1 X127.514 Y116.832 E.74199
G1 X127.095 Y116.832 E.01314
G1 X127.095 Y93.168 E.74199
G1 X126.676 Y93.168 E.01314
G1 X126.676 Y116.832 E.74199
G1 X126.257 Y116.832 E.01314
G1 X126.257 Y93.168 E.74199
G1 X125.838 Y93.168 E.01314
G1 X125.838 Y116.832 E.74199
G1 X125.419 Y116.832 E.01314
G1 X125.419 Y93.168 E.74199
G1 X125 Y93.168 E.01314
G1 X125 Y116.832 E.74199
G1 X124.581 Y116.832 E.01314
G1 X124.581 Y112.753 E.1279
G1 X124.26 Y112.919 E.01133
G1 X124.162 Y112.919 E.00307
G1 X124.162 Y116.832 E.12269
G1 X123.743 Y116.832 E.01314
G1 X123.743 Y112.919 E.12269
G1 X123.324 Y112.919 E.01314
G1 X123.324 Y116.832 E.12269
G1 X122.905 Y116.832 E.01314
G1 X122.905 Y112.919 E.12269
G1 X122.486 Y112.919 E.01314
G1 X122.486 Y116.832 E.12269
G1 X122.067 Y116.832 E.01314
G1 X122.067 Y112.919 E.12269
G1 X121.648 Y112.919 E.01314
G1 X121.648 Y116.832 E.12269
G1 X121.229 Y116.832 E.01314
G1 X121.229 Y112.919 E.12269
G1 X120.81 Y112.919 E.01314
G1 X120.81 Y116.832 E.12269
G1 X120.391 Y116.832 E.01314
G1 X120.391 Y112.919 E.12269
G1 X119.972 Y112.919 E.01314
G1 X119.972 Y116.832 E.12269
G1 X119.553 Y116.832 E.01314
G1 X119.553 Y112.919 E.12269
G1 X119.134 Y112.919 E.01314
G1 X119.134 Y116.832 E.12269
G1 X118.715 Y116.832 E.01314
G1 X118.715 Y112.919 E.12269
G1 X118.296 Y112.919 E.01314
G1 X118.296 Y116.832 E.12269
G1 X117.877 Y116.832 E.01314
G1 X117.877 Y112.919 E.12269
G1 X117.458 Y112.919 E.01314
G1 X117.458 Y116.832 E.12269
G1 X117.039 Y116.832 E.01314
G1 X117.039 Y112.919 E.12269
G1 X116.62 Y112.919 E.01314
G1 X116.62 Y116.832 E.12269
G1 X116.201 Y116.832 E.01314
G1 X116.201 Y112.919 E.12269
G1 X115.783 Y112.919 E.01314
G1 X115.783 Y116.832 E.12269
G1 X115.364 Y116.832 E.01314
G1 X115.364 Y112.919 E.12269
G1 X114.945 Y112.919 E.01314
G1 X114.945 Y116.832 E.12269
G1 X114.526 Y116.832 E.01314
G1 X114.526 Y112.919 E.12269
G1 X114.107 Y112.919 E.01314
G1 X114.107 Y116.832 E.12269
G1 X113.688 Y116.832 E.01314
G1 X113.688 Y112.919 E.12269
G1 X113.269 Y112.919 E.01314
G1 X113.269 Y116.832 E.12269
G1 X112.85 Y116.832 E.01314
G1 X112.85 Y112.919 E.12269
G1 X112.431 Y112.919 E.01314
G1 X112.431 Y116.832 E.12269
G1 X112.012 Y116.832 E.01314
G1 X112.012 Y112.919 E.12269
G1 X111.593 Y112.919 E.01314
G1 X111.593 Y116.832 E.12269
G1 X111.174 Y116.832 E.01314
G1 X111.174 Y112.919 E.12269
G1 X110.755 Y112.919 E.01314
G1 X110.755 Y116.832 E.12269
G1 X110.336 Y116.832 E.01314
G1 X110.336 Y112.919 E.12269
G1 X109.917 Y112.919 E.01314
G1 X109.917 Y116.832 E.12269
G1 X109.498 Y116.832 E.01314
G1 X109.498 Y112.919 E.12269
G1 X109.079 Y112.919 E.01314
G1 X109.079 Y116.832 E.12269
G1 X108.66 Y116.832 E.01314
G1 X108.66 Y112.919 E.12269
G1 X108.241 Y112.919 E.01314
G1 X108.241 Y116.832 E.12269
G1 X107.822 Y116.832 E.01314
G1 X107.822 Y112.919 E.12269
G1 X107.403 Y112.919 E.01314
G1 X107.403 Y116.832 E.12269
G1 X106.984 Y116.832 E.01314
G1 X106.984 Y112.919 E.12269
G1 X106.565 Y112.919 E.01314
G1 X106.565 Y116.832 E.12269
G1 X106.146 Y116.832 E.01314
G1 X106.146 Y112.919 E.12269
G1 X105.727 Y112.919 E.01314
G1 X105.727 Y116.832 E.12269
G1 X105.308 Y116.832 E.01314
G1 X105.308 Y112.919 E.12269
G1 X104.889 Y112.919 E.01314
G1 X104.889 Y116.832 E.12269
G1 X104.47 Y116.832 E.01314
G1 X104.47 Y112.919 E.12269
G1 X104.222 Y112.919 E.00777
G1 X104.051 Y112.749 E.00757
G1 X104.051 Y116.832 E.12802
G1 X103.632 Y116.832 E.01314
G1 X103.632 Y112.302 E.14206
G1 X103.284 Y112.02 E.01403
G1 X103.213 Y111.87 E.00519
G1 X103.213 Y116.832 E.15558
G1 X102.794 Y116.832 E.01314
G1 X102.794 Y109.71 E.22332
G1 X102.375 Y109.805 E.01347
G1 X102.375 Y116.832 E.22035
G1 X101.956 Y116.832 E.01314
G1 X101.956 Y109.725 E.22284
M204 S1000
;WIPE_START
G1 F8640
G1 X101.956 Y113.017 E-.76
;WIPE_END
G1 E-.04 F2100
G1 Z.6 F720
G1 X124.581 Y97.511 F10800
G1 Z.2 F720
G1 E.8 F2100
M204 S800
G1 F1200
G1 X124.581 Y93.168 E.13618
G1 X124.162 Y93.168 E.01314
G1 X124.162 Y97.081 E.12269
G1 X123.743 Y97.081 E.01314
G1 X123.743 Y93.168 E.12269
G1 X123.324 Y93.168 E.01314
G1 X123.324 Y97.081 E.12269
G1 X122.905 Y97.081 E.01314
G1 X122.905 Y93.168 E.12269
G1 X122.486 Y93.168 E.01314
G1 X122.486 Y97.081 E.12269
G1 X122.067 Y97.081 E.01314
G1 X122.067 Y93.168 E.12269
G1 X121.648 Y93.168 E.01314
G1 X121.648 Y97.081 E.12269
G1 X121.229 Y97.081 E.01314
G1 X121.229 Y93.168 E.12269
G1 X120.81 Y93.168 E.01314
M73 Q3 S61
G1 X120.81 Y97.081 E.12269
G1 X120.391 Y97.081 E.01314
M73 P3 R61
G1 X120.391 Y93.168 E.12269
G1 X119.972 Y93.168 E.01314
G1 X119.972 Y97.081 E.12269
G1 X119.553 Y97.081 E.01314
G1 X119.553 Y93.168 E.12269
G1 X119.134 Y93.168 E.01314
G1 X119.134 Y97.081 E.12269
G1 X118.715 Y97.081 E.01314
G1 X118.715 Y93.168 E.12269
G1 X118.296 Y93.168 E.01314
G1 X118.296 Y97.081 E.12269
G1 X117.877 Y97.081 E.01314
G1 X117.877 Y93.168 E.12269
G1 X117.458 Y93.168 E.01314
G1 X117.458 Y97.081 E.12269
G1 X117.039 Y97.081 E.01314
G1 X117.039 Y93.168 E.12269
G1 X116.62 Y93.168 E.01314
G1 X116.62 Y97.081 E.12269
G1 X116.201 Y97.081 E.01314
G1 X116.201 Y93.168 E.12269
G1 X115.783 Y93.168 E.01314
G1 X115.783 Y97.081 E.12269
G1 X115.364 Y97.081 E.01314
G1 X115.364 Y93.168 E.12269
G1 X114.945 Y93.168 E.01314
G1 X114.945 Y97.081 E.12269
G1 X114.526 Y97.081 E.01314
G1 X114.526 Y93.168 E.12269
G1 X114.107 Y93.168 E.01314
G1 X114.107 Y97.081 E.12269
G1 X113.688 Y97.081 E.01314
G1 X113.688 Y93.168 E.12269
G1 X113.269 Y93.168 E.01314
G1 X113.269 Y97.081 E.12269
G1 X112.85 Y97.081 E.01314
G1 X112.85 Y93.168 E.12269
G1 X112.431 Y93.168 E.01314
G1 X112.431 Y97.081 E.12269
G1 X112.012 Y97.081 E.01314
G1 X112.012 Y93.168 E.12269
G1 X111.593 Y93.168 E.01314
G1 X111.593 Y97.081 E.12269
G1 X111.174 Y97.081 E.01314
G1 X111.174 Y93.168 E.12269
G1 X110.755 Y93.168 E.01314
G1 X110.755 Y97.081 E.12269
G1 X110.336 Y97.081 E.01314
G1 X110.336 Y93.168 E.12269
G1 X109.917 Y93.168 E.01314
G1 X109.917 Y97.081 E.12269
G1 X109.498 Y97.081 E.01314
G1 X109.498 Y93.168 E.12269
G1 X109.079 Y93.168 E.01314
G1 X109.079 Y97.081 E.12269
G1 X108.66 Y97.081 E.01314
G1 X108.66 Y93.168 E.12269
G1 X108.241 Y93.168 E.01314
G1 X108.241 Y97.081 E.12269
G1 X107.822 Y97.081 E.01314
G1 X107.822 Y93.168 E.12269
G1 X107.403 Y93.168 E.01314
G1 X107.403 Y97.081 E.12269
G1 X106.984 Y97.081 E.01314
G1 X106.984 Y93.168 E.12269
G1 X106.565 Y93.168 E.01314
G1 X106.565 Y97.081 E.12269
G1 X106.146 Y97.081 E.01314
G1 X106.146 Y93.168 E.12269
G1 X105.727 Y93.168 E.01314
G1 X105.727 Y97.081 E.12269
G1 X105.308 Y97.081 E.01314
G1 X105.308 Y93.168 E.12269
G1 X104.889 Y93.168 E.01314
G1 X104.889 Y97.081 E.12269
G1 X104.47 Y97.081 E.01314
G1 X104.47 Y93.168 E.12269
G1 X104.051 Y93.168 E.01314
G1 X104.051 Y97.251 E.12802
G1 X103.743 Y97.557 E.01361
G1 X103.743 Y97.609 E.00165
G1 X103.632 Y97.699 E.00446
G1 X103.632 Y93.168 E.14208
G1 X103.213 Y93.168 E.01314
M73 P3 R60
G1 X103.213 Y98.131 E.15564
G1 X103.126 Y98.314 E.00634
G1 X103.125 Y100.367 E.06436
G1 X102.794 Y100.292 E.01063
G1 X102.794 Y93.168 E.22337
G1 X102.375 Y93.168 E.01314
G1 X102.375 Y100.197 E.2204
G1 X101.956 Y100.102 E.01347
G1 X101.956 Y92.998 E.22274
M204 S1000
;WIPE_START
G1 F8640
G1 X101.956 Y96.289 E-.76
;WIPE_END
G1 E-.04 F2100
G1 Z.6 F720
G1 X123.37 Y111.313 F10800
G1 Z.2 F720
G1 E.8 F2100
M204 S800
;TYPE:Perimeter
;WIDTH:0.419999
G1 F1200
G1 X104.959 Y111.313 E.57725
G1 X104.731 Y111.126 E.00923
G1 X104.732 Y98.873 E.38419
G1 X104.959 Y98.687 E.0092
G1 X123.373 Y98.692 E.57737
G1 X123.37 Y111.253 E.39384
M204 S1000
G1 X123.747 Y111.69 F10800
M204 S800
;TYPE:External perimeter
G1 F1200
G1 X104.825 Y111.69 E.5933
G1 X104.354 Y111.305 E.01906
G1 X104.355 Y98.695 E.39539
G1 X104.824 Y98.31 E.01902
G1 X123.75 Y98.315 E.59342
G1 X123.747 Y111.63 E.41748
M204 S1000
G1 X123.355 Y111.609 F10800
;WIPE_START
G1 F8640
G1 X120.456 Y111.64 E-.76
;WIPE_END
G1 E-.04 F2100
G1 Z.6 F720
G1 X123.26 Y99.576 F10800
G1 Z.2 F720
G1 E.8 F2100
M204 S800
;TYPE:Solid infill
;WIDTH:0.424372
G1 F1200
G1 X122.658 Y98.975 E.027
G1 X122.119 Y98.974 E.01711
G1 X123.09 Y99.946 E.04358
G1 X123.09 Y100.485 E.01711
G1 X121.579 Y98.974 E.06778
G1 X121.039 Y98.974 E.01711
G1 X123.09 Y101.025 E.09198
G1 X123.09 Y101.564 E.01711
G1 X120.5 Y98.974 E.11618
G1 X119.96 Y98.974 E.01711
G1 X123.09 Y102.103 E.14037
G1 X123.089 Y102.643 E.01711
G1 X119.421 Y98.974 E.16457
G1 X118.881 Y98.974 E.01711
G1 X123.089 Y103.182 E.18877
G1 X123.089 Y103.721 E.01711
G1 X118.341 Y98.973 E.21297
G1 X117.802 Y98.973 E.01711
G1 X123.089 Y104.261 E.23717
G1 X123.089 Y104.8 E.01711
G1 X117.262 Y98.973 E.26136
G1 X116.723 Y98.973 E.01711
G1 X123.089 Y105.339 E.28556
G1 X123.089 Y105.878 E.01711
M73 Q3 S60
G1 X116.183 Y98.973 E.30976
G1 X115.643 Y98.973 E.01711
G1 X123.089 Y106.418 E.33396
G1 X123.088 Y106.957 E.01711
G1 X115.104 Y98.973 E.35815
G1 X114.564 Y98.972 E.01711
G1 X123.088 Y107.496 E.38235
G1 X123.088 Y108.036 E.01711
G1 X114.025 Y98.972 E.40655
G1 X113.485 Y98.972 E.01711
G1 X123.088 Y108.575 E.43075
G1 X123.088 Y109.114 E.01711
G1 X112.945 Y98.972 E.45495
G1 X112.406 Y98.972 E.01711
G1 X123.088 Y109.654 E.47914
G1 X123.088 Y110.193 E.01711
G1 X111.866 Y98.972 E.50334
G1 X111.327 Y98.972 E.01711
