; generated by PrusaSlicer 2.5.0+win64 on 2023-01-27 at 19:20:11 UTC


;
;

;
;
; 

; external perimeters extrusion width = 0.60mm
; perimeters extrusion width = 0.50mm
; infill extrusion width = 0.50mm
; solid infill extrusion width = 0.50mm
; top infill extrusion width = 0.40mm
; support material extrusion width = 0.38mm
; first layer extrusion width = 0.42mm

M73 P0 R139
M107
;TYPE:Custom
G90 ; use absolute coordinates
M83 ; extruder relative mode
M204 S1250 T1250
M104 S215 ; set extruder temp
M140 S65 ; set bed temp
G28 ; home all
G1 Y1.0 Z0.3 F1000 ; move print head up
M190 S65 ; wait for bed temp
M109 S215 ; wait for extruder temp
G92 E0.0
; initial load
G1 X205.0 E19 F1000
G1 Y1.6
G1 X5.0 E19 F1000
G92 E0.0
; intro line
G1 Y2.0 Z0.2 F1000
M73 P0 R138
G1 X65.0 E9.0 F1000
G1 X105.0 E12.5 F1000
G92 E0.0
G21 ; set units to millimeters
G90 ; use absolute coordinates
M83 ; use relative distances for extrusion
; Filament gcode
M107
;LAYER_CHANGE
;Z:0.2
;HEIGHT:0.2
;BEFORE_LAYER_CHANGE
G92 E0.0
;0.2
G1 E-6 F2400
G1 Z.075 F10800
G1 Z.2
;AFTER_LAYER_CHANGE
;0.2
G1 Z.275
G1 X64.06 Y82.817
G1 Z.2
G1 E6 F3000
M204 S800
;TYPE:Skirt/Brim
;WIDTH:0.42
G1 F1200
G1 X65 Y82.623 E.03008
G1 X145 Y82.623 E2.50834
G1 X146.307 Y83.015 E.04278
G1 X147.183 Y84.06 E.04278
G1 X147.377 Y85 E.03008
G1 X147.377 Y125 E1.25417
G1 X146.985 Y126.307 E.04278
G1 X145.94 Y127.183 E.04278
G1 X145 Y127.377 E.03008
G1 X65 Y127.377 E2.50834
G1 X63.693 Y126.985 E.04278
G1 X62.817 Y125.94 E.04278
G1 X62.623 Y125 E.03008
G1 X62.623 Y85 E1.25417
G1 X63.015 Y83.693 E.04278
G1 X64.014 Y82.855 E.0409
M204 S1000
; printing object Netzteilhalter-Dad id:0 copy 0
G1 E-3.6 F2400
;WIPE_START
G1 F8640
G1 X65 Y82.623 E-.26724
G1 X72.627 Y82.623 E-2.01276
;WIPE_END
G1 E-.12 F2400
G1 Z.275 F10800
G1 X65.587 Y85.587
G1 Z.2
G1 E6 F3000
M204 S800
;TYPE:Perimeter
;WIDTH:0.419999
G1 F1200
G1 X144.413 Y85.587 E2.47152
G1 X144.413 Y124.413 E1.21736
G1 X65.587 Y124.413 E2.47152
G1 X65.587 Y85.647 E1.21547
M204 S1000
G1 X65.21 Y85.21 F10800
M204 S800
;TYPE:External perimeter
G1 F1200
G1 X144.79 Y85.21 E2.49517
G1 X144.79 Y124.79 E1.241
G1 X65.21 Y124.79 E2.49517
G1 X65.21 Y85.27 E1.23912
M204 S1000
G1 X65.605 Y85.271 F10800
G1 E-3.6 F2400
;WIPE_START
G1 F8640
G1 X73.85 Y85.263 E-2.28
;WIPE_END
G1 E-.12 F2400
G1 Z.275 F10800
G1 X144.3 Y86.466
G1 Z.2
G1 E6 F3000
M204 S800
;TYPE:Solid infill
;WIDTH:0.421576
G1 F1200
G1 X143.704 Y85.87 E.02654
G1 X143.168 Y85.87 E.01686
G1 X144.13 Y86.832 E.04282
G1 X144.13 Y87.367 E.01686
G1 X142.633 Y85.87 E.06667
G1 X142.097 Y85.87 E.01686
G1 X144.13 Y87.903 E.09051
G1 X144.13 Y88.438 E.01686
G1 X141.562 Y85.87 E.11436
G1 X141.026 Y85.87 E.01686
G1 X144.13 Y88.974 E.1382
G1 X144.13 Y89.509 E.01686
G1 X140.491 Y85.87 E.16204
G1 X139.955 Y85.87 E.01686
G1 X144.13 Y90.045 E.18589
G1 X144.13 Y90.58 E.01686
G1 X139.42 Y85.87 E.20973
G1 X138.884 Y85.87 E.01686
G1 X144.13 Y91.116 E.23358
G1 X144.13 Y91.651 E.01686
G1 X138.349 Y85.87 E.25742
G1 X137.813 Y85.87 E.01686
G1 X144.13 Y92.187 E.28127
G1 X144.13 Y92.722 E.01686
G1 X137.278 Y85.87 E.30511
G1 X136.742 Y85.87 E.01686
G1 X144.13 Y93.258 E.32895
G1 X144.13 Y93.793 E.01686
G1 X136.207 Y85.87 E.3528
G1 X135.671 Y85.87 E.01686
G1 X144.13 Y94.329 E.37664
G1 X144.13 Y94.864 E.01686
G1 X135.136 Y85.87 E.40049
G1 X134.6 Y85.87 E.01686
G1 X144.13 Y95.4 E.42433
G1 X144.13 Y95.935 E.01686
G1 X134.065 Y85.87 E.44818
G1 X133.529 Y85.87 E.01686
G1 X144.13 Y96.471 E.47202
G1 X144.13 Y97.006 E.01686
G1 X132.994 Y85.87 E.49586
G1 X132.458 Y85.87 E.01686
G1 X144.13 Y97.542 E.51971
G1 X144.13 Y98.077 E.01686
G1 X131.923 Y85.87 E.54355
G1 X131.387 Y85.87 E.01686
M73 P0 R137
G1 X144.13 Y98.613 E.5674
G1 X144.13 Y99.148 E.01686
G1 X130.852 Y85.87 E.59124
G1 X130.316 Y85.87 E.01686
G1 X144.13 Y99.684 E.61509
G1 X144.13 Y100.219 E.01686
M73 P1 R137
G1 X129.781 Y85.87 E.63893
G1 X129.245 Y85.87 E.01686
G1 X144.13 Y100.755 E.66277
G1 X144.13 Y101.29 E.01686
G1 X128.71 Y85.87 E.68662
G1 X128.174 Y85.87 E.01686
G1 X144.13 Y101.826 E.71046
G1 X144.13 Y102.361 E.01686
G1 X127.639 Y85.87 E.73431
G1 X127.103 Y85.87 E.01686
G1 X144.13 Y102.897 E.75815
G1 X144.13 Y103.432 E.01686
G1 X126.568 Y85.87 E.782
G1 X126.032 Y85.87 E.01686
G1 X144.13 Y103.968 E.80584
G1 X144.13 Y104.503 E.01686
G1 X125.497 Y85.87 E.82968
G1 X124.961 Y85.87 E.01686
G1 X144.13 Y105.039 E.85353
G1 X144.13 Y105.574 E.01686
G1 X124.426 Y85.87 E.87737
G1 X123.89 Y85.87 E.01686
G1 X144.13 Y106.11 E.90122
G1 X144.13 Y106.645 E.01686
G1 X123.355 Y85.87 E.92506
G1 X122.819 Y85.87 E.01686
G1 X144.13 Y107.181 E.94891
G1 X144.13 Y107.716 E.01686
G1 X122.284 Y85.87 E.97275
G1 X121.748 Y85.87 E.01686
G1 X144.13 Y108.252 E.99659
G1 X144.13 Y108.787 E.01686
G1 X121.213 Y85.87 E1.02044
G1 X120.677 Y85.87 E.01686
G1 X144.13 Y109.323 E1.04428
G1 X144.13 Y109.858 E.01686
G1 X120.142 Y85.87 E1.06813
G1 X119.606 Y85.87 E.01686
G1 X144.13 Y110.394 E1.09197
G1 X144.13 Y110.929 E.01686
G1 X119.071 Y85.87 E1.11582
G1 X118.535 Y85.87 E.01686
G1 X144.13 Y111.465 E1.13966
G1 X144.13 Y112 E.01686
G1 X118 Y85.87 E1.1635
G1 X117.464 Y85.87 E.01686
G1 X144.13 Y112.536 E1.18735
G1 X144.13 Y113.071 E.01686
G1 X116.929 Y85.87 E1.21119
G1 X116.393 Y85.87 E.01686
G1 X144.13 Y113.607 E1.23504
G1 X144.13 Y114.142 E.01686
G1 X115.858 Y85.87 E1.25888
G1 X115.322 Y85.87 E.01686
G1 X144.13 Y114.678 E1.28272
G1 X144.13 Y115.213 E.01686
G1 X114.787 Y85.87 E1.30657
G1 X114.251 Y85.87 E.01686
G1 X144.13 Y115.749 E1.33041
G1 X144.13 Y116.284 E.01686
G1 X113.716 Y85.87 E1.35426
G1 X113.18 Y85.87 E.01686
G1 X144.13 Y116.82 E1.3781
G1 X144.13 Y117.355 E.01686
G1 X112.645 Y85.87 E1.40195
G1 X112.109 Y85.87 E.01686
G1 X144.13 Y117.891 E1.42579
G1 X144.13 Y118.426 E.01686
M73 P1 R136
G1 X111.574 Y85.87 E1.44963
G1 X111.038 Y85.87 E.01686
G1 X144.13 Y118.962 E1.47348
G1 X144.13 Y119.497 E.01686
G1 X110.503 Y85.87 E1.49732
G1 X109.967 Y85.87 E.01686
G1 X144.13 Y120.033 E1.52117
G1 X144.13 Y120.568 E.01686
G1 X109.432 Y85.87 E1.54501
G1 X108.896 Y85.87 E.01686
G1 X144.13 Y121.104 E1.56886
G1 X144.13 Y121.639 E.01686
G1 X108.361 Y85.87 E1.5927
G1 X107.825 Y85.87 E.01686
G1 X144.13 Y122.175 E1.61654
G1 X144.13 Y122.71 E.01686
G1 X107.29 Y85.87 E1.64039
G1 X106.754 Y85.87 E.01686
G1 X144.13 Y123.246 E1.66423
G1 X144.13 Y123.781 E.01686
G1 X106.219 Y85.87 E1.68808
G1 X105.683 Y85.87 E.01686
M73 P2 R136
G1 X143.944 Y124.13 E1.70362
G1 X143.408 Y124.13 E.01686
G1 X105.148 Y85.87 E1.70362
G1 X104.612 Y85.87 E.01686
G1 X142.873 Y124.13 E1.70362
G1 X142.337 Y124.13 E.01686
G1 X104.077 Y85.87 E1.70362
G1 X103.541 Y85.87 E.01686
G1 X141.802 Y124.13 E1.70362
G1 X141.266 Y124.13 E.01686
G1 X103.006 Y85.87 E1.70362
G1 X102.47 Y85.87 E.01686
G1 X140.731 Y124.13 E1.70362
G1 X140.195 Y124.13 E.01686
G1 X101.935 Y85.87 E1.70362
G1 X101.399 Y85.87 E.01686
G1 X139.66 Y124.13 E1.70362
G1 X139.124 Y124.13 E.01686
G1 X100.864 Y85.87 E1.70362
G1 X100.328 Y85.87 E.01686
G1 X138.589 Y124.13 E1.70362
G1 X138.053 Y124.13 E.01686
G1 X99.793 Y85.87 E1.70362
G1 X99.257 Y85.87 E.01686
M73 P2 R135
G1 X137.518 Y124.13 E1.70362
G1 X136.982 Y124.13 E.01686
G1 X98.722 Y85.87 E1.70362
G1 X98.186 Y85.87 E.01686
G1 X136.447 Y124.13 E1.70362
G1 X135.911 Y124.13 E.01686
G1 X97.651 Y85.87 E1.70362
G1 X97.115 Y85.87 E.01686
G1 X135.376 Y124.13 E1.70362
G1 X134.84 Y124.13 E.01686
G1 X96.58 Y85.87 E1.70362
G1 X96.044 Y85.87 E.01686
G1 X134.305 Y124.13 E1.70362
G1 X133.769 Y124.13 E.01686
G1 X95.509 Y85.87 E1.70362
G1 X94.973 Y85.87 E.01686
G1 X133.234 Y124.13 E1.70362
G1 X132.698 Y124.13 E.01686
G1 X94.438 Y85.87 E1.70362
G1 X93.902 Y85.87 E.01686
G1 X132.163 Y124.13 E1.70362
G1 X131.627 Y124.13 E.01686
G1 X93.367 Y85.87 E1.70362
G1 X92.831 Y85.87 E.01686
G1 X131.092 Y124.13 E1.70362
G1 X130.556 Y124.13 E.01686
G1 X92.296 Y85.87 E1.70362
G1 X91.76 Y85.87 E.01686
G1 X130.021 Y124.13 E1.70362
G1 X129.485 Y124.13 E.01686
G1 X91.225 Y85.87 E1.70362
G1 X90.689 Y85.87 E.01686
G1 X128.95 Y124.13 E1.70362
G1 X128.414 Y124.13 E.01686
G1 X90.154 Y85.87 E1.70362
G1 X89.618 Y85.87 E.01686
M73 P3 R135
G1 X127.879 Y124.13 E1.70362
G1 X127.343 Y124.13 E.01686
G1 X89.083 Y85.87 E1.70362
G1 X88.547 Y85.87 E.01686
G1 X126.808 Y124.13 E1.70362
G1 X126.272 Y124.13 E.01686
G1 X88.012 Y85.87 E1.70362
G1 X87.476 Y85.87 E.01686
M73 P3 R134
G1 X125.737 Y124.13 E1.70362
G1 X125.201 Y124.13 E.01686
G1 X86.941 Y85.87 E1.70362
G1 X86.405 Y85.87 E.01686
G1 X124.666 Y124.13 E1.70362
G1 X124.13 Y124.13 E.01686
G1 X85.87 Y85.87 E1.70362
G1 X85.334 Y85.87 E.01686
G1 X123.595 Y124.13 E1.70362
G1 X123.059 Y124.13 E.01686
G1 X84.799 Y85.87 E1.70362
G1 X84.263 Y85.87 E.01686
G1 X122.524 Y124.13 E1.70362
G1 X121.988 Y124.13 E.01686
G1 X83.728 Y85.87 E1.70362
G1 X83.192 Y85.87 E.01686
G1 X121.453 Y124.13 E1.70362
G1 X120.917 Y124.13 E.01686
G1 X82.657 Y85.87 E1.70362
G1 X82.121 Y85.87 E.01686
G1 X120.382 Y124.13 E1.70362
G1 X119.846 Y124.13 E.01686
G1 X81.586 Y85.87 E1.70362
G1 X81.05 Y85.87 E.01686
G1 X119.311 Y124.13 E1.70362
G1 X118.775 Y124.13 E.01686
G1 X80.515 Y85.87 E1.70362
G1 X79.979 Y85.87 E.01686
G1 X118.24 Y124.13 E1.70362
G1 X117.704 Y124.13 E.01686
G1 X79.444 Y85.87 E1.70362
G1 X78.908 Y85.87 E.01686
G1 X117.169 Y124.13 E1.70362
G1 X116.633 Y124.13 E.01686
G1 X78.373 Y85.87 E1.70362
G1 X77.837 Y85.87 E.01686
G1 X116.098 Y124.13 E1.70362
G1 X115.562 Y124.13 E.01686
G1 X77.302 Y85.87 E1.70362
G1 X76.766 Y85.87 E.01686
G1 X115.027 Y124.13 E1.70362
G1 X114.491 Y124.13 E.01686
G1 X76.231 Y85.87 E1.70362
G1 X75.695 Y85.87 E.01686
M73 P3 R133
G1 X113.956 Y124.13 E1.70362
G1 X113.42 Y124.13 E.01686
G1 X75.16 Y85.87 E1.70362
G1 X74.624 Y85.87 E.01686
G1 X112.885 Y124.13 E1.70362
G1 X112.349 Y124.13 E.01686
G1 X74.089 Y85.87 E1.70362
G1 X73.553 Y85.87 E.01686
G1 X111.814 Y124.13 E1.70362
G1 X111.278 Y124.13 E.01686
M73 P4 R133
G1 X73.018 Y85.87 E1.70362
G1 X72.482 Y85.87 E.01686
G1 X110.743 Y124.13 E1.70362
G1 X110.207 Y124.13 E.01686
G1 X71.947 Y85.87 E1.70362
G1 X71.411 Y85.87 E.01686
G1 X109.672 Y124.13 E1.70362
G1 X109.136 Y124.13 E.01686
G1 X70.876 Y85.87 E1.70362
G1 X70.34 Y85.87 E.01686
G1 X108.601 Y124.13 E1.70362
G1 X108.065 Y124.13 E.01686
G1 X69.805 Y85.87 E1.70362
G1 X69.269 Y85.87 E.01686
G1 X107.53 Y124.13 E1.70362
G1 X106.994 Y124.13 E.01686
G1 X68.734 Y85.87 E1.70362
G1 X68.198 Y85.87 E.01686
G1 X106.459 Y124.13 E1.70362
G1 X105.923 Y124.13 E.01686
G1 X67.663 Y85.87 E1.70362
G1 X67.127 Y85.87 E.01686
G1 X105.388 Y124.13 E1.70362
G1 X104.852 Y124.13 E.01686
G1 X66.592 Y85.87 E1.70362
G1 X66.056 Y85.87 E.01686
G1 X104.317 Y124.13 E1.70362
G1 X103.781 Y124.13 E.01686
G1 X65.87 Y86.219 E1.68807
G1 X65.87 Y86.754 E.01686
G1 X103.246 Y124.13 E1.66423
G1 X102.71 Y124.13 E.01686
G1 X65.87 Y87.29 E1.64038
G1 X65.87 Y87.825 E.01686
M73 P4 R132
G1 X102.175 Y124.13 E1.61654
G1 X101.639 Y124.13 E.01686
G1 X65.87 Y88.361 E1.5927
G1 X65.87 Y88.896 E.01686
G1 X101.104 Y124.13 E1.56885
G1 X100.568 Y124.13 E.01686
G1 X65.87 Y89.432 E1.54501
G1 X65.87 Y89.967 E.01686
G1 X100.033 Y124.13 E1.52116
G1 X99.497 Y124.13 E.01686
G1 X65.87 Y90.503 E1.49732
G1 X65.87 Y91.038 E.01686
G1 X98.962 Y124.13 E1.47347
G1 X98.426 Y124.13 E.01686
G1 X65.87 Y91.574 E1.44963
G1 X65.87 Y92.109 E.01686
G1 X97.891 Y124.13 E1.42579
G1 X97.355 Y124.13 E.01686
G1 X65.87 Y92.645 E1.40194
G1 X65.87 Y93.18 E.01686
G1 X96.82 Y124.13 E1.3781
G1 X96.284 Y124.13 E.01686
G1 X65.87 Y93.716 E1.35425
G1 X65.87 Y94.251 E.01686
G1 X95.749 Y124.13 E1.33041
G1 X95.213 Y124.13 E.01686
G1 X65.87 Y94.787 E1.30657
G1 X65.87 Y95.322 E.01686
G1 X94.678 Y124.13 E1.28272
G1 X94.142 Y124.13 E.01686
G1 X65.87 Y95.858 E1.25888
G1 X65.87 Y96.393 E.01686
M73 P5 R132
G1 X93.607 Y124.13 E1.23503
G1 X93.071 Y124.13 E.01686
G1 X65.87 Y96.929 E1.21119
G1 X65.87 Y97.464 E.01686
G1 X92.536 Y124.13 E1.18734
G1 X92 Y124.13 E.01686
G1 X65.87 Y98 E1.1635
G1 X65.87 Y98.535 E.01686
G1 X91.465 Y124.13 E1.13966
G1 X90.929 Y124.13 E.01686
G1 X65.87 Y99.071 E1.11581
G1 X65.87 Y99.606 E.01686
G1 X90.394 Y124.13 E1.09197
G1 X89.858 Y124.13 E.01686
G1 X65.87 Y100.142 E1.06812
G1 X65.87 Y100.677 E.01686
G1 X89.323 Y124.13 E1.04428
G1 X88.787 Y124.13 E.01686
G1 X65.87 Y101.213 E1.02043
G1 X65.87 Y101.748 E.01686
G1 X88.252 Y124.13 E.99659
G1 X87.716 Y124.13 E.01686
G1 X65.87 Y102.284 E.97275
G1 X65.87 Y102.819 E.01686
G1 X87.181 Y124.13 E.9489
G1 X86.645 Y124.13 E.01686
M73 P5 R131
G1 X65.87 Y103.355 E.92506
G1 X65.87 Y103.89 E.01686
G1 X86.11 Y124.13 E.90121
G1 X85.574 Y124.13 E.01686
G1 X65.87 Y104.426 E.87737
G1 X65.87 Y104.961 E.01686
G1 X85.039 Y124.13 E.85352
G1 X84.503 Y124.13 E.01686
G1 X65.87 Y105.497 E.82968
G1 X65.87 Y106.032 E.01686
G1 X83.968 Y124.13 E.80584
G1 X83.432 Y124.13 E.01686
G1 X65.87 Y106.568 E.78199
G1 X65.87 Y107.103 E.01686
G1 X82.897 Y124.13 E.75815
G1 X82.361 Y124.13 E.01686
G1 X65.87 Y107.639 E.7343
G1 X65.87 Y108.174 E.01686
G1 X81.826 Y124.13 E.71046
G1 X81.29 Y124.13 E.01686
G1 X65.87 Y108.71 E.68661
G1 X65.87 Y109.245 E.01686
G1 X80.755 Y124.13 E.66277
G1 X80.219 Y124.13 E.01686
G1 X65.87 Y109.781 E.63893
G1 X65.87 Y110.316 E.01686
G1 X79.684 Y124.13 E.61508
G1 X79.148 Y124.13 E.01686
G1 X65.87 Y110.852 E.59124
G1 X65.87 Y111.387 E.01686
G1 X78.613 Y124.13 E.56739
G1 X78.077 Y124.13 E.01686
G1 X65.87 Y111.923 E.54355
G1 X65.87 Y112.458 E.01686
G1 X77.542 Y124.13 E.5197
G1 X77.006 Y124.13 E.01686
G1 X65.87 Y112.994 E.49586
G1 X65.87 Y113.529 E.01686
G1 X76.471 Y124.13 E.47202
G1 X75.935 Y124.13 E.01686
G1 X65.87 Y114.065 E.44817
G1 X65.87 Y114.6 E.01686
G1 X75.4 Y124.13 E.42433
G1 X74.864 Y124.13 E.01686
G1 X65.87 Y115.136 E.40048
G1 X65.87 Y115.671 E.01686
G1 X74.329 Y124.13 E.37664
G1 X73.793 Y124.13 E.01686
G1 X65.87 Y116.207 E.3528
G1 X65.87 Y116.742 E.01686
G1 X73.258 Y124.13 E.32895
G1 X72.722 Y124.13 E.01686
G1 X65.87 Y117.278 E.30511
G1 X65.87 Y117.813 E.01686
G1 X72.187 Y124.13 E.28126
G1 X71.651 Y124.13 E.01686
G1 X65.87 Y118.349 E.25742
G1 X65.87 Y118.884 E.01686
G1 X71.116 Y124.13 E.23357
G1 X70.58 Y124.13 E.01686
G1 X65.87 Y119.42 E.20973
G1 X65.87 Y119.955 E.01686
G1 X70.045 Y124.13 E.18589
G1 X69.509 Y124.13 E.01686
G1 X65.87 Y120.491 E.16204
G1 X65.87 Y121.026 E.01686
G1 X68.974 Y124.13 E.1382
G1 X68.438 Y124.13 E.01686
G1 X65.87 Y121.562 E.11435
G1 X65.87 Y122.097 E.01686
G1 X67.903 Y124.13 E.09051
G1 X67.367 Y124.13 E.01686
G1 X65.87 Y122.633 E.06666
G1 X65.87 Y123.168 E.01686
G1 X66.832 Y124.13 E.04282
G1 X66.296 Y124.13 E.01686
G1 X65.7 Y123.534 E.02653
M204 S1000
; stop printing object Netzteilhalter-Dad id:0 copy 0
M106 S255
;LAYER_CHANGE
;Z:0.55
;HEIGHT:0.35
;BEFORE_LAYER_CHANGE
G92 E0.0
;0.55
G1 E-3.6 F2400
;WIPE_START
G1 F8640
G1 X66.296 Y124.13 E-.22237
G1 X66.832 Y124.13 E-.14131
G1 X65.87 Y123.168 E-.35889
G1 X65.87 Y122.633 E-.14131
G1 X67.367 Y124.13 E-.55873
G1 X67.903 Y124.13 E-.14131
G1 X65.984 Y122.211 E-.71608
;WIPE_END
G1 E-.12 F2400
G1 Z.275 F10800
G1 Z.55
;AFTER_LAYER_CHANGE
;0.55
M140 S60 ; set bed temperature
G1 Z.625
G1 X62.623 Y122.211
G1 Z.55
G1 E6 F3000
;TYPE:Skirt/Brim
;WIDTH:0.42
G1 F2700
G1 X62.623 Y85 E1.86749
G1 X63.015 Y83.693 E.06848
G1 X64.06 Y82.817 E.06848
G1 X65 Y82.623 E.04815
G1 X145 Y82.623 E4.01487
G1 X146.307 Y83.015 E.06848
G1 X147.183 Y84.06 E.06848
G1 X147.377 Y85 E.04815
G1 X147.377 Y125 E2.00744
G1 X146.985 Y126.307 E.06848
G1 X145.94 Y127.183 E.06848
G1 X145 Y127.377 E.04815
G1 X65 Y127.377 E4.01487
G1 X63.693 Y126.985 E.06848
G1 X62.817 Y125.94 E.06848
G1 X62.623 Y125 E.04815
G1 X62.623 Y122.271 E.13694
; printing object Netzteilhalter-Dad id:0 copy 0
G1 E-3.6 F2400
;WIPE_START
G1 F8640
G1 X62.623 Y113.631 E-2.28
;WIPE_END
G1 E-.12 F2400
G1 Z.625 F10800
G1 X65.775 Y124.225
G1 Z.55
G1 E6 F3000
M204 S800
;TYPE:Perimeter
;WIDTH:0.5
G1 X65.775 Y85.775 E2.37726
G1 X144.225 Y85.775 E4.85033
G1 X144.225 Y124.225 E2.37726
G1 X65.835 Y124.225 E4.84663
M204 S1000
G1 X65.3 Y124.7 F10800
M204 S800
;TYPE:External perimeter
;WIDTH:0.6
G1 F2100
G1 X65.3 Y85.3 E3.0093
G1 X144.7 Y85.3 E6.06443
G1 X144.7 Y124.7 E3.0093
G1 X65.36 Y124.7 E6.05985
M204 S1000
G1 X65.445 Y124.327 F10800
G1 E-3.6 F2400
;WIPE_START
G1 F8640
G1 X65.347 Y116.06 E-2.28
;WIPE_END
