; generated by PrusaSlicer 2.7.0+win64 on 2024-03-09 at 19:39:25 UTC


;
;

;
;
; 

; external perimeters extrusion width = 0.60mm
; perimeters extrusion width = 0.50mm
; infill extrusion width = 0.50mm
; solid infill extrusion width = 0.50mm
; top infill extrusion width = 0.40mm
; support material extrusion width = 0.38mm
; first layer extrusion width = 0.42mm

M73 P0 R72

; printing object Münzhalter v3 id:0 copy 0
; stop printing object Münzhalter v3 id:0 copy 0

;TYPE:Custom
G90 ; use absolute coordinates
M83 ; extruder relative mode
M204 S1250 T1250
M104 S215 ; set extruder temp
M140 S65 ; set bed temp
G28 ; home all
G1 Y1.0 Z0.3 F1000 ; move print head up
M190 S65 ; wait for bed temp
M109 S215 ; wait for extruder temp
G92 E0.0
; initial load
G1 X205.0 E19 F1000
G1 Y1.6
G1 X5.0 E19 F1000
G92 E0.0
; intro line
G1 Y2.0 Z0.2 F1000
G1 X65.0 E9.0 F1000
G1 X105.0 E12.5 F1000
G92 E0.0
G21 ; set units to millimeters
G90 ; use absolute coordinates
M83 ; use relative distances for extrusion
; Filament gcode
M107
;LAYER_CHANGE
;Z:0.2
;HEIGHT:0.2
;BEFORE_LAYER_CHANGE
G92 E0.0
;0.2
G1 E-6 F2400
G1 Z.2 F10800
;AFTER_LAYER_CHANGE
;0.2
G1 X93.157 Y81.757
G1 Z.2
G1 E6 F3000
M204 S800
;TYPE:Skirt/Brim
;WIDTH:0.42
G1 F1200
G1 X94.602 Y80.273 E.06494
G1 X96.091 Y79.061 E.0602
G1 X97.385 Y78.223 E.04834
G1 X98.819 Y77.48 E.05064
G1 X100.251 Y76.907 E.04836
G1 X102.336 Y76.341 E.06774
G1 X104.293 Y76.055 E.06201
G1 X105.915 Y76.003 E.05088
G1 X108.117 Y76.199 E.06932
G1 X110.075 Y76.618 E.06278
G1 X111.693 Y77.168 E.05358
G1 X113.632 Y78.101 E.06747
G1 X115.296 Y79.164 E.06191
G1 X116.688 Y80.307 E.05647
G1 X117.72 Y81.342 E.04583
G1 X118.526 Y82.297 E.03918
G1 X119.45 Y83.603 E.05016
G1 X134.291 Y107.599 E.88465
G1 X134.964 Y108.818 E.04366
G1 X135.567 Y110.166 E.0463
G1 X136.05 Y111.562 E.04632
G1 X136.409 Y112.994 E.04629
G1 X136.655 Y114.56 E.0497
G1 X136.746 Y115.931 E.04308
G1 X136.717 Y117.488 E.04883
G1 X136.554 Y118.964 E.04656
G1 X136.265 Y120.407 E.04614
G1 X135.822 Y121.903 E.04892
G1 X135.318 Y123.189 E.04331
G1 X134.76 Y124.332 E.03988
G1 X133.902 Y125.764 E.05234
G1 X132.525 Y127.54 E.07046
G1 X130.998 Y129.071 E.0678
G1 X129.25 Y130.405 E.06894
G1 X127.337 Y131.515 E.06935
G1 X125.351 Y132.337 E.06739
G1 X123.173 Y132.927 E.07075
G1 X121.713 Y133.152 E.04632
G1 X120.16 Y133.252 E.04879
G1 X90.264 Y133.992 E.93766
G1 X88.771 Y133.876 E.04695
G1 X87.293 Y133.634 E.04696
G1 X85.841 Y133.268 E.04695
G1 X84.587 Y132.843 E.04152
G1 X83.024 Y132.158 E.05351
G1 X81.651 Y131.396 E.04923
G1 X80.305 Y130.479 E.05107
G1 X78.749 Y129.16 E.06396
G1 X77.387 Y127.721 E.06212
G1 X76.429 Y126.474 E.0493
G1 X75.526 Y125.041 E.05311
G1 X74.846 Y123.706 E.04698
G1 X74.257 Y122.248 E.0493
G1 X73.665 Y120.149 E.06838
G1 X73.345 Y118.196 E.06205
G1 X73.254 Y116.699 E.04702
G1 X73.295 Y115.124 E.0494
G1 X73.488 Y113.5 E.05128
G1 X73.795 Y112.034 E.04696
G1 X74.292 Y110.409 E.05328
G1 X74.859 Y109.023 E.04695
G1 X75.443 Y107.866 E.04064
G1 X76.277 Y106.5 E.05018
G1 X92.178 Y83.025 E.889
G1 X93.121 Y81.805 E.04835
M204 S1000
; printing object Münzhalter v3 id:0 copy 0
G1 E-3.6 F2400
;WIPE_START
G1 F8640
G1 X93.157 Y81.757 E-.01583
G1 X94.602 Y80.273 E-.54659
G1 X96.091 Y79.061 E-.50664
G1 X97.385 Y78.223 E-.40682
G1 X98.819 Y77.48 E-.4262
G1 X100.251 Y76.907 E-.40702
G1 X100.583 Y76.817 E-.0909
;WIPE_END
G1 Z.275 F10800
G1 X95.645 Y83.988
G1 Z.2
G1 E6 F3000
M204 S800
;TYPE:Perimeter
;WIDTH:0.419999
G1 F1200
G1 X96.431 Y83.134 E.03639
G1 X97.369 Y82.291 E.03954
G1 X98.2 Y81.662 E.03268
G1 X99.185 Y81.042 E.03649
G1 X100.219 Y80.515 E.03639
G1 X101.415 Y80.043 E.04031
G1 X102.413 Y79.744 E.03267
G1 X103.553 Y79.508 E.0365
G1 X104.706 Y79.375 E.03639
G1 X105.992 Y79.35 E.04033
G1 X107.031 Y79.419 E.03265
G1 X108.182 Y79.596 E.03651
G1 X109.308 Y79.875 E.03637
G1 X110.522 Y80.301 E.04034
G1 X111.471 Y80.729 E.03264
G1 X112.487 Y81.297 E.0365
G1 X113.447 Y81.953 E.03646
G1 X114.369 Y82.713 E.03746
G1 X115.195 Y83.531 E.03645
G1 X115.946 Y84.42 E.03649
G1 X116.614 Y85.372 E.03646
G1 X117.195 Y86.38 E.03648
G1 X117.684 Y87.436 E.03649
G1 X118.076 Y88.531 E.03647
G1 X118.37 Y89.657 E.03649
G1 X118.561 Y90.805 E.03649
G1 X118.65 Y91.965 E.03648
G1 X118.635 Y93.131 E.03656
G1 X118.435 Y95.189 E.06483
M73 P1 R72
G1 X118.463 Y96.3 E.03485
G1 X118.609 Y97.271 E.03079
G1 X118.867 Y98.219 E.0308
G1 X119.233 Y99.13 E.03078
G1 X119.703 Y99.993 E.03081
G1 X120.269 Y100.795 E.03078
G1 X120.924 Y101.527 E.0308
G1 X121.659 Y102.178 E.03079
G1 X122.465 Y102.739 E.03079
G1 X123.337 Y103.205 E.031
G1 X125.294 Y103.974 E.06593
G1 X126.36 Y104.496 E.03722
G1 X127.374 Y105.109 E.03715
G1 X128.331 Y105.808 E.03716
G1 X129.223 Y106.587 E.03713
G1 X130.047 Y107.447 E.03734
G1 X130.786 Y108.366 E.03698
G1 X131.444 Y109.35 E.03712
G1 X132.014 Y110.389 E.03716
G1 X132.492 Y111.473 E.03715
G1 X132.872 Y112.595 E.03714
G1 X133.153 Y113.746 E.03715
G1 X133.332 Y114.917 E.03714
G1 X133.406 Y116.219 E.04089
G1 X133.394 Y116.726 E.0159
G1 X133.381 Y117.281 E.01741
G1 X133.251 Y118.455 E.03703
G1 X133.019 Y119.614 E.03706
G1 X132.686 Y120.747 E.03703
G1 X132.258 Y121.845 E.03695
G1 X131.671 Y123.009 E.04087
G1 X131.118 Y123.915 E.03328
G1 X130.417 Y124.867 E.03707
G1 X129.639 Y125.752 E.03695
G1 X128.69 Y126.646 E.04088
G1 X127.86 Y127.306 E.03325
G1 X126.876 Y127.961 E.03706
G1 X125.841 Y128.526 E.03697
G1 X124.645 Y129.042 E.04084
G1 X123.591 Y129.392 E.03482
G1 X122.438 Y129.667 E.03717
G1 X121.266 Y129.84 E.03715
G1 X120.084 Y129.91 E.03713
G1 X118.899 Y129.877 E.03717
G1 X117.723 Y129.74 E.03712
G1 X116.563 Y129.5 E.03714
G1 X115.422 Y129.158 E.03735
G1 X114.327 Y128.722 E.03695
G1 X113.269 Y128.189 E.03714
G1 X112.258 Y127.565 E.03725
G1 X110.459 Y126.247 E.06992
G1 X109.588 Y125.769 E.03115
G1 X108.667 Y125.396 E.03116
G1 X107.709 Y125.133 E.03115
G1 X106.726 Y124.985 E.03117
G1 X106.03 Y124.958 E.02184
G1 X105.383 Y124.98 E.0203
G1 X104.471 Y125.091 E.02881
G1 X103.568 Y125.302 E.02908
G1 X102.689 Y125.612 E.02922
G1 X101.846 Y126.019 E.02935
G1 X101.075 Y126.499 E.02848
G1 X99.405 Y127.837 E.06709
G1 X98.398 Y128.521 E.03817
G1 X97.34 Y129.116 E.03806
G1 X96.235 Y129.619 E.03807
G1 X95.092 Y130.026 E.03804
G1 X93.918 Y130.335 E.03806
G1 X92.722 Y130.542 E.03806
G1 X91.512 Y130.648 E.03808
G1 X90.299 Y130.65 E.03803
G1 X89.089 Y130.55 E.03807
G1 X87.892 Y130.347 E.03807
G1 X86.716 Y130.043 E.03808
G1 X85.605 Y129.654 E.03691
G1 X84.496 Y129.158 E.03809
G1 X83.434 Y128.57 E.03806
G1 X82.428 Y127.895 E.03798
G1 X81.385 Y127.049 E.04211
G1 X80.599 Y126.298 E.03409
G1 X79.793 Y125.389 E.03809
G1 X79.068 Y124.415 E.03807
G1 X78.428 Y123.383 E.03807
G1 X77.878 Y122.301 E.03806
G1 X77.422 Y121.175 E.03809
G1 X77.063 Y120.016 E.03804
G1 X76.804 Y118.832 E.038
G1 X76.638 Y117.5 E.04209
G1 X76.592 Y116.414 E.03408
G1 X76.64 Y115.2 E.03809
G1 X76.797 Y113.964 E.03907
G1 X77.052 Y112.778 E.03804
G1 X77.408 Y111.617 E.03808
G1 X77.861 Y110.491 E.03805
G1 X78.407 Y109.407 E.03806
G1 X79.044 Y108.374 E.03805
G1 X79.77 Y107.393 E.03827
G1 X80.569 Y106.487 E.03788
G1 X81.445 Y105.648 E.03803
G1 X82.39 Y104.886 E.03806
G1 X83.397 Y104.207 E.03808
G1 X84.457 Y103.616 E.03805
G1 X85.566 Y103.116 E.03814
G1 X87.562 Y102.399 E.0665
G1 X87.737 Y102.319 E.00603
G1 X88.644 Y101.836 E.03222
G1 X89.489 Y101.244 E.03235
G1 X90.082 Y100.738 E.02444
G1 X90.676 Y100.111 E.02708
G1 X91.323 Y99.246 E.03387
G1 X91.807 Y98.403 E.03048
G1 X92.191 Y97.51 E.03048
G1 X92.471 Y96.579 E.03048
G1 X92.642 Y95.622 E.03048
G1 X92.701 Y94.646 E.03066
G1 X92.588 Y92.576 E.065
G1 X92.623 Y91.411 E.03654
G1 X92.761 Y90.255 E.0365
G1 X93.001 Y89.117 E.03647
G1 X93.342 Y88.005 E.03647
G1 X93.781 Y86.927 E.0365
G1 X94.314 Y85.893 E.03647
G1 X94.937 Y84.911 E.03646
G1 X95.609 Y84.035 E.03462
M204 S1000
G1 X94.628 Y84.694 F10800
M204 S800
G1 F1200
G1 X95.357 Y83.745 E.03752
G1 X96.166 Y82.865 E.03748
G1 X97.129 Y82 E.04059
G1 X97.985 Y81.351 E.03368
G1 X98.999 Y80.714 E.03755
G1 X100.063 Y80.171 E.03745
G1 X101.292 Y79.686 E.04143
G1 X102.321 Y79.378 E.03368
G1 X103.493 Y79.135 E.03753
G1 X104.68 Y78.998 E.03746
G1 X106.001 Y78.973 E.04143
G1 X107.072 Y79.044 E.03365
G1 X108.256 Y79.226 E.03756
G1 X109.416 Y79.513 E.03747
G1 X110.662 Y79.951 E.04141
G1 X111.641 Y80.392 E.03367
G1 X112.686 Y80.976 E.03753
G1 X113.674 Y81.652 E.03754
G1 X114.622 Y82.433 E.03851
G1 X115.472 Y83.275 E.03751
G1 X116.245 Y84.189 E.03753
G1 X116.933 Y85.169 E.03754
G1 X117.53 Y86.207 E.03754
G1 X118.033 Y87.293 E.03753
G1 X118.437 Y88.42 E.03754
G1 X118.739 Y89.578 E.03752
G1 X118.936 Y90.759 E.03754
G1 X119.027 Y91.953 E.03755
G1 X119.012 Y93.152 E.0376
G1 X118.81 Y95.226 E.06534
G1 X118.836 Y96.246 E.03199
G1 X118.974 Y97.175 E.02945
G1 X119.218 Y98.08 E.02939
G1 X119.566 Y98.952 E.02944
G1 X120.012 Y99.777 E.02941
G1 X120.551 Y100.546 E.02944
G1 X121.175 Y101.246 E.0294
G1 X121.877 Y101.87 E.02945
G1 X122.645 Y102.408 E.0294
G1 X123.475 Y102.855 E.02956
G1 X125.446 Y103.628 E.06638
G1 X126.541 Y104.165 E.03824
G1 X127.584 Y104.795 E.03821
G1 X128.567 Y105.513 E.03817
G1 X129.483 Y106.314 E.03815
G1 X130.331 Y107.198 E.03841
G1 X131.09 Y108.142 E.03798
G1 X131.767 Y109.154 E.03818
G1 X132.353 Y110.222 E.0382
G1 X132.843 Y111.336 E.03816
G1 X133.235 Y112.489 E.03818
G1 X133.523 Y113.672 E.03818
G1 X133.708 Y114.878 E.03826
G1 X133.783 Y116.213 E.04192
G1 X133.771 Y116.735 E.01637
G1 X133.758 Y117.306 E.01791
G1 X133.624 Y118.513 E.03808
G1 X133.385 Y119.704 E.03809
G1 X133.044 Y120.869 E.03806
G1 X132.602 Y121.998 E.03802
G1 X132.001 Y123.193 E.04194
G1 X131.431 Y124.125 E.03425
G1 X130.711 Y125.104 E.0381
G1 X129.91 Y126.014 E.03801
G1 X128.938 Y126.931 E.0419
G1 X128.082 Y127.611 E.03428
G1 X127.071 Y128.284 E.03808
G1 X126.006 Y128.865 E.03804
G1 X124.779 Y129.395 E.04191
G1 X123.695 Y129.755 E.03581
G1 X122.51 Y130.038 E.0382
G1 X121.305 Y130.216 E.03819
G1 X120.089 Y130.288 E.03819
G1 X118.872 Y130.253 E.03817
G1 X117.663 Y130.112 E.03816
G1 X116.47 Y129.866 E.03819
M73 P1 R71
G1 X115.298 Y129.514 E.03837
G1 X114.172 Y129.066 E.038
G1 X113.084 Y128.519 E.03818
G1 X112.047 Y127.877 E.03824
G1 X110.275 Y126.577 E.06891
G1 X109.444 Y126.117 E.02978
G1 X108.565 Y125.759 E.02976
G1 X107.65 Y125.506 E.02977
G1 X106.711 Y125.361 E.02979
G1 X106.016 Y125.334 E.02181
G1 X105.412 Y125.356 E.01895
G1 X104.545 Y125.461 E.02738
G1 X103.685 Y125.66 E.02768
G1 X102.846 Y125.955 E.02788
G1 X102.042 Y126.341 E.02796
G1 X101.311 Y126.793 E.02695
G1 X99.629 Y128.141 E.06758
G1 X98.597 Y128.842 E.03912
G1 X97.511 Y129.453 E.03907
G1 X96.377 Y129.969 E.03906
G1 X95.203 Y130.387 E.03907
G1 X93.998 Y130.703 E.03906
G1 X92.771 Y130.917 E.03905
G1 X91.529 Y131.025 E.03909
G1 X90.283 Y131.027 E.03907
G1 X89.042 Y130.924 E.03904
G1 X87.813 Y130.716 E.03908
G1 X86.607 Y130.404 E.03906
G1 X85.466 Y130.004 E.03791
G1 X84.328 Y129.495 E.03909
G1 X83.237 Y128.892 E.03908
G1 X82.204 Y128.199 E.039
G1 X81.135 Y127.333 E.04314
G1 X80.327 Y126.56 E.03506
G1 X79.5 Y125.627 E.03909
G1 X78.756 Y124.627 E.03908
G1 X78.099 Y123.568 E.03908
G1 X77.534 Y122.457 E.03908
G1 X77.066 Y121.302 E.03907
G1 X76.698 Y120.112 E.03905
G1 X76.432 Y118.896 E.03903
G1 X76.262 Y117.531 E.04313
G1 X76.214 Y116.414 E.03506
G1 X76.264 Y115.168 E.0391
G1 X76.425 Y113.9 E.04008
G1 X76.687 Y112.683 E.03903
G1 X77.052 Y111.492 E.03906
G1 X77.517 Y110.335 E.0391
G1 X78.078 Y109.223 E.03905
G1 X78.731 Y108.162 E.03906
G1 X79.477 Y107.156 E.03927
G1 X80.296 Y106.226 E.03885
G1 X81.196 Y105.364 E.03907
G1 X82.166 Y104.582 E.03907
G1 X83.199 Y103.885 E.03907
G1 X84.287 Y103.279 E.03905
G1 X85.425 Y102.766 E.03914
G1 X87.435 Y102.045 E.06695
G1 X88.437 Y101.521 E.03545
G1 X89.247 Y100.956 E.03096
G1 X89.808 Y100.479 E.02309
G1 X90.402 Y99.852 E.02708
G1 X90.997 Y99.056 E.03116
G1 X91.462 Y98.252 E.02912
G1 X91.831 Y97.4 E.02911
G1 X92.1 Y96.511 E.02912
G1 X92.265 Y95.597 E.02912
G1 X92.325 Y94.666 E.02925
G1 X92.211 Y92.581 E.06547
G1 X92.246 Y91.383 E.03758
G1 X92.388 Y90.194 E.03755
G1 X92.636 Y89.023 E.03753
G1 X92.986 Y87.878 E.03754
G1 X93.438 Y86.769 E.03755
G1 X93.986 Y85.705 E.03753
G1 X94.596 Y84.745 E.03566
M204 S1000
G1 X94.318 Y84.478 F10800
M204 S800
;TYPE:External perimeter
G1 F1200
G1 X95.068 Y83.502 E.03859
G1 X95.901 Y82.596 E.03859
G1 X96.888 Y81.709 E.04161
G1 X97.77 Y81.041 E.03469
G1 X98.813 Y80.386 E.03862
G1 X99.908 Y79.827 E.03855
G1 X101.168 Y79.329 E.04248
G1 X102.228 Y79.012 E.03469
G1 X103.433 Y78.762 E.03859
G1 X104.655 Y78.622 E.03857
G1 X106.009 Y78.596 E.04246
G1 X107.114 Y78.669 E.03472
G1 X108.33 Y78.856 E.03857
G1 X109.524 Y79.151 E.03856
G1 X110.802 Y79.6 E.04247
G1 X111.811 Y80.055 E.0347
G1 X112.885 Y80.656 E.03859
G1 X113.901 Y81.35 E.03858
G1 X114.875 Y82.153 E.03958
G1 X115.75 Y83.019 E.0386
G1 X116.544 Y83.959 E.03858
G1 X117.251 Y84.966 E.03858
G1 X117.865 Y86.033 E.0386
G1 X118.382 Y87.15 E.03859
G1 X118.798 Y88.309 E.03861
G1 X119.108 Y89.5 E.03859
G1 X119.311 Y90.714 E.03859
G1 X119.405 Y91.941 E.03858
G1 X119.389 Y93.172 E.0386
G1 X119.184 Y95.298 E.06697
G1 X119.209 Y96.192 E.02804
G1 X119.338 Y97.078 E.02807
G1 X119.569 Y97.942 E.02804
G1 X119.898 Y98.774 E.02805
G1 X120.322 Y99.562 E.02806
G1 X120.834 Y100.296 E.02806
G1 X121.427 Y100.965 E.02803
G1 X122.094 Y101.561 E.02805
G1 X122.826 Y102.076 E.02806
G1 X123.613 Y102.504 E.02809
G1 X125.598 Y103.283 E.06686
G1 X126.722 Y103.834 E.03925
G1 X127.793 Y104.48 E.03922
G1 X128.803 Y105.218 E.03922
G1 X129.744 Y106.041 E.0392
G1 X130.614 Y106.949 E.03943
G1 X131.394 Y107.919 E.03903
G1 X132.09 Y108.958 E.03921
G1 X132.691 Y110.055 E.03922
G1 X133.195 Y111.199 E.0392
G1 X133.597 Y112.384 E.03923
G1 X133.894 Y113.599 E.03922
G1 X134.083 Y114.839 E.03933
G1 X134.16 Y116.207 E.04296
G1 X134.148 Y116.744 E.01684
G1 X134.134 Y117.331 E.01841
G1 X133.997 Y118.571 E.03912
G1 X133.752 Y119.794 E.03911
G1 X133.401 Y120.991 E.03911
G1 X132.947 Y122.152 E.03909
G1 X132.331 Y123.376 E.04296
G1 X131.745 Y124.336 E.03526
G1 X131.005 Y125.34 E.03911
G1 X130.182 Y126.276 E.03908
G1 X129.185 Y127.216 E.04296
G1 X128.305 Y127.916 E.03526
G1 X127.266 Y128.607 E.03912
G1 X126.172 Y129.205 E.03909
G1 X124.914 Y129.748 E.04296
G1 X123.798 Y130.118 E.03686
G1 X122.581 Y130.409 E.03923
G1 X121.344 Y130.591 E.0392
G1 X120.095 Y130.665 E.03923
G1 X118.845 Y130.63 E.03921
G1 X117.603 Y130.485 E.03921
G1 X116.378 Y130.232 E.03922
G1 X115.174 Y129.871 E.03941
G1 X114.017 Y129.41 E.03905
G1 X112.9 Y128.848 E.03921
G1 X111.836 Y128.19 E.03922
G1 X110.091 Y126.906 E.06793
G1 X109.3 Y126.466 E.02838
G1 X108.463 Y126.122 E.02837
G1 X107.591 Y125.878 E.02839
G1 X106.699 Y125.738 E.02831
G1 X106.001 Y125.711 E.0219
G1 X105.442 Y125.732 E.01754
G1 X104.618 Y125.83 E.02602
G1 X103.801 Y126.019 E.02629
G1 X103.004 Y126.298 E.02648
G1 X102.239 Y126.663 E.02658
G1 X101.546 Y127.088 E.02549
G1 X99.853 Y128.444 E.06801
G1 X98.796 Y129.163 E.04008
G1 X97.682 Y129.789 E.04007
G1 X96.518 Y130.319 E.0401
G1 X95.314 Y130.747 E.04006
G1 X94.078 Y131.072 E.04007
G1 X92.819 Y131.291 E.04007
G1 X91.546 Y131.402 E.04007
G1 X90.268 Y131.405 E.04007
G1 X88.994 Y131.299 E.04008
G1 X87.734 Y131.085 E.04007
G1 X86.497 Y130.765 E.04006
G1 X85.326 Y130.355 E.0389
G1 X84.159 Y129.833 E.04008
G1 X83.041 Y129.214 E.04007
G1 X81.979 Y128.502 E.04009
G1 X80.886 Y127.616 E.04412
G1 X80.055 Y126.822 E.03604
G1 X79.207 Y125.865 E.04009
G1 X78.444 Y124.84 E.04006
G1 X77.77 Y123.753 E.0401
G1 X77.191 Y122.614 E.04006
G1 X76.711 Y121.429 E.04009
G1 X76.333 Y120.208 E.04008
G1 X76.06 Y118.96 E.04006
G1 X75.886 Y117.563 E.04414
G1 X75.837 Y116.415 E.03603
G1 X75.888 Y115.137 E.0401
G1 X76.053 Y113.837 E.04109
G1 X76.322 Y112.588 E.04006
G1 X76.696 Y111.366 E.04007
G1 X77.173 Y110.18 E.04008
G1 X77.748 Y109.039 E.04006
G1 X78.419 Y107.951 E.04008
G1 X79.183 Y106.919 E.04026
G1 X80.024 Y105.965 E.03988
G1 X80.947 Y105.081 E.04007
G1 X81.942 Y104.279 E.04007
G1 X83.001 Y103.564 E.04006
G1 X84.118 Y102.941 E.0401
G1 X85.283 Y102.416 E.04007
G1 X87.307 Y101.69 E.06742
G1 X88.229 Y101.206 E.03265
G1 X89.004 Y100.667 E.0296
G1 X89.534 Y100.22 E.02174
